lib/svgs/building.svg

<svg xmlns="http://www.w3.org/2000/svg" viewBox="0 0 20 20">
    <path fill="#000" fill-rule="evenodd" d="M13.6001,1.9998 L6.4001,1.9998 C4.9661,1.9998 3.8001,3.1668 3.8001,4.5998 L3.8001,17.4008 C3.8001,17.7318 4.0681,17.9998 4.4001,17.9998 L15.6001,17.9998 C15.9321,17.9998 16.2001,17.7318 16.2001,17.4008 L16.2001,4.5998 C16.2001,3.1668 15.0341,1.9998 13.6001,1.9998 L13.6001,1.9998 L13.6001,1.9998 Z M15.0001,16.8008 L11.6001,16.8008 L11.6001,13.8128 C11.6001,13.4818 11.3311,13.2128 11.0001,13.2128 L9.0001,13.2128 C8.6691,13.2128 8.4001,13.4818 8.4001,13.8128 L8.4001,16.8008 L5.0001,16.8008 L5.0001,4.5998 C5.0001,3.8278 5.6281,3.1998 6.4001,3.1998 L13.6001,3.1998 C14.3721,3.1998 15.0001,3.8278 15.0001,4.5998 L15.0001,16.8008 L15.0001,16.8008 L15.0001,16.8008 Z M8.0198,10.0356 L7.2998,10.0356 C6.9688,10.0356 6.6998,10.3046 6.6998,10.6356 L6.6998,11.3556 C6.6998,11.6866 6.9688,11.9556 7.2998,11.9556 L8.0198,11.9556 C8.3508,11.9556 8.6198,11.6866 8.6198,11.3556 L8.6198,10.6356 C8.6198,10.3046 8.3508,10.0356 8.0198,10.0356 L8.0198,10.0356 L8.0198,10.0356 Z M12.7002,10.0356 L11.9802,10.0356 C11.6492,10.0356 11.3802,10.3046 11.3802,10.6356 L11.3802,11.3556 C11.3802,11.6866 11.6492,11.9556 11.9802,11.9556 L12.7002,11.9556 C13.0312,11.9556 13.3002,11.6866 13.3002,11.3556 L13.3002,10.6356 C13.3002,10.3046 13.0312,10.0356 12.7002,10.0356 L12.7002,10.0356 L12.7002,10.0356 Z M8.0198,7.3159 L7.2998,7.3159 C6.9688,7.3159 6.6998,7.5849 6.6998,7.9159 L6.6998,8.6359 C6.6998,8.9669 6.9688,9.2359 7.2998,9.2359 L8.0198,9.2359 C8.3508,9.2359 8.6198,8.9669 8.6198,8.6359 L8.6198,7.9159 C8.6198,7.5849 8.3508,7.3159 8.0198,7.3159 L8.0198,7.3159 L8.0198,7.3159 Z M12.7002,7.3159 L11.9802,7.3159 C11.6492,7.3159 11.3802,7.5849 11.3802,7.9159 L11.3802,8.6359 C11.3802,8.9669 11.6492,9.2359 11.9802,9.2359 L12.7002,9.2359 C13.0312,9.2359 13.3002,8.9669 13.3002,8.6359 L13.3002,7.9159 C13.3002,7.5849 13.0312,7.3159 12.7002,7.3159 L12.7002,7.3159 L12.7002,7.3159 Z M8.0198,4.597 L7.2998,4.597 C6.9688,4.597 6.6998,4.866 6.6998,5.197 L6.6998,5.917 C6.6998,6.248 6.9688,6.517 7.2998,6.517 L8.0198,6.517 C8.3508,6.517 8.6198,6.248 8.6198,5.917 L8.6198,5.197 C8.6198,4.866 8.3508,4.597 8.0198,4.597 L8.0198,4.597 L8.0198,4.597 Z M12.7002,4.597 L11.9802,4.597 C11.6492,4.597 11.3802,4.866 11.3802,5.197 L11.3802,5.917 C11.3802,6.248 11.6492,6.517 11.9802,6.517 L12.7002,6.517 C13.0312,6.517 13.3002,6.248 13.3002,5.917 L13.3002,5.197 C13.3002,4.866 13.0312,4.597 12.7002,4.597 L12.7002,4.597 L12.7002,4.597 Z"/>
</svg>

<svg xmlns="http://www.w3.org/2000/svg" viewBox="0 0 20 20">
    <path fill="#000" fill-rule="evenodd" d="M13.6 2H6.4a2.603 2.603 0 0 0-2.6 2.6v12.8c0 .332.268.6.6.6h11.2c.332 0 .6-.268.6-.6V4.6c0-1.433-1.166-2.6-2.6-2.6M15 16.8h-3.4v-2.987a.6.6 0 0 0-.6-.6H9a.6.6 0 0 0-.6.6V16.8H5V4.6c0-.772.628-1.4 1.4-1.4h7.2c.772 0 1.4.628 1.4 1.4v12.2m-6.98-6.764H7.3a.6.6 0 0 0-.6.6v.72a.6.6 0 0 0 .6.6h.72a.6.6 0 0 0 .6-.6v-.72a.6.6 0 0 0-.6-.6m4.68 0h-.72a.6.6 0 0 0-.6.6v.72a.6.6 0 0 0 .6.6h.72a.6.6 0 0 0 .6-.6v-.72a.6.6 0 0 0-.6-.6m-4.68-2.72H7.3a.6.6 0 0 0-.6.6v.72a.6.6 0 0 0 .6.6h.72a.6.6 0 0 0 .6-.6v-.72a.6.6 0 0 0-.6-.6m4.68 0h-.72a.6.6 0 0 0-.6.6v.72a.6.6 0 0 0 .6.6h.72a.6.6 0 0 0 .6-.6v-.72a.6.6 0 0 0-.6-.6M8.02 4.597H7.3a.6.6 0 0 0-.6.6v.72a.6.6 0 0 0 .6.6h.72a.6.6 0 0 0 .6-.6v-.72a.6.6 0 0 0-.6-.6m4.68 0h-.72a.6.6 0 0 0-.6.6v.72a.6.6 0 0 0 .6.6h.72a.6.6 0 0 0 .6-.6v-.72a.6.6 0 0 0-.6-.6"/>
</svg>
